X:1
T:The World Turned Upside Down
M:6/8
L:1/8
K:C
 z4 z c| cGF E3| CEG c2 c| cGF E3| CEG c2 c| cec BdB| Adc B2 A| GAB cGF|\
 E3/2 D/2 C G3| D2 D D2 D| E2 E E2 E| F2 F FED| E2 A G2 G| DDE FED|\
 EFA G3| GAB cGF| E2 D C2 z|

